src/Resource_Files/fluent/insert-image.svg

<svg clip-rule="evenodd" fill-rule="evenodd" stroke-linejoin="round" stroke-miterlimit="2" viewBox="0 0 16 16" xmlns="http://www.w3.org/2000/svg"><path d="m14 3c1.657 0 3 1.343 3 3v8c0 1.657-1.343 3-3 3h-8c-1.657 0-3-1.343-3-3v-8c0-1.657 1.343-3 3-3zm-3.65 8.145c-.17-.167-.43-.188-.622-.062l-.078.062-4.662 4.581c.248.145.529.239.829.266l.183.008h8c.308 0 .599-.069.859-.194l.153-.08zm3.65-7.145h-8c-1.105 0-2 .895-2 2v8c0 .373.102.722.279 1.02l4.67-4.588c.583-.573 1.519-.573 2.102 0l4.67 4.588c.177-.298.279-.647.279-1.02v-8c0-1.105-.895-2-2-2zm-1.5 2c.828 0 1.5.672 1.5 1.5s-.672 1.5-1.5 1.5-1.5-.672-1.5-1.5.672-1.5 1.5-1.5zm0 1c-.276 0-.5.224-.5.5s.224.5.5.5.5-.224.5-.5-.224-.5-.5-.5z" fill="#1abc9c" fill-rule="nonzero" transform="translate(-2 -2)"/></svg>

<?xml version="1.0" encoding="UTF-8" standalone="no"?>
<!DOCTYPE svg PUBLIC "-//W3C//DTD SVG 1.1//EN" "http://www.w3.org/Graphics/SVG/1.1/DTD/svg11.dtd">
<svg width="100%" height="100%" viewBox="0 0 16 16" version="1.1" xmlns="http://www.w3.org/2000/svg" xmlns:xlink="http://www.w3.org/1999/xlink" xml:space="preserve" xmlns:serif="http://www.serif.com/" style="fill-rule:evenodd;clip-rule:evenodd;stroke-linejoin:round;stroke-miterlimit:2;">
    <g id="image" transform="matrix(1,0,0,1,-2,-2)">
        <path d="M14,3C15.657,3 17,4.343 17,6L17,14C17,15.657 15.657,17 14,17L6,17C4.343,17 3,15.657 3,14L3,6C3,4.343 4.343,3 6,3L14,3ZM10.35,11.145C10.18,10.978 9.92,10.957 9.728,11.083L9.65,11.145L4.988,15.726C5.236,15.871 5.517,15.965 5.817,15.992L6,16L14,16C14.308,16 14.599,15.931 14.859,15.806L15.012,15.726L10.35,11.145ZM14,4L6,4C4.895,4 4,4.895 4,6L4,14C4,14.373 4.102,14.722 4.279,15.02L8.949,10.432C9.532,9.859 10.468,9.859 11.051,10.432L15.721,15.02C15.898,14.722 16,14.373 16,14L16,6C16,4.895 15.105,4 14,4ZM12.5,6C13.328,6 14,6.672 14,7.5C14,8.328 13.328,9 12.5,9C11.672,9 11,8.328 11,7.5C11,6.672 11.672,6 12.5,6ZM12.5,7C12.224,7 12,7.224 12,7.5C12,7.776 12.224,8 12.5,8C12.776,8 13,7.776 13,7.5C13,7.224 12.776,7 12.5,7Z" style="fill:rgb(26,188,156);fill-rule:nonzero;"/>
    </g>
</svg>
